data/playwrite-gb-j.svg

<svg width="106.16" height="23.1" viewBox="0 0 106.16 23.1" xmlns="http://www.w3.org/2000/svg"><path transform="translate(0 17.85) scale(.014 -.014)" d="m169-14q-44 0-44 28v834q0 14 11.5 20.5t33.5 6.5h190q100 0 167-22t101.5-70 34.5-127q0-77-29-130.5t-76-87.5-103-53.5-111-28.5q-37-5-71-7.5t-60-2.5v-332q0-14-11-21t-33-7zm44 439q19 0 40.5 1t44.5 3.5 46 5.5q57 10 109.5 34t86 69 33.5 117q0 51-24 81.5t-71.5 44.5-117.5 14h-147z"/><path transform="translate(9.8 17.85) scale(.014 -.014)" d="m193-17q-51 0-74.5 27t-23.5 78v776q0 13 10.5 19.5t31.5 6.5q22 0 33-6.5t11-19.5v-765q0-22 8-31t21-9q10 0 17 3.5t14 10.5 14 15q7 7 16 5.5t19-10.5q7-7 10.5-16.5t-1.5-17.5q-11-21-28-35.5t-37-22.5-41-8z"/><path transform="translate(13.986 17.85) scale(.014 -.014)" d="m250-17q-55 0-97.5 28t-66 83-23.5 138q0 52 9.5 96.5t28.5 80 46 60 62 37.5 78 13q32 0 65-9.5t63-26.5v4q0 14 11 21t33 7 32.5-6.5 10.5-20.5v-389q0-14 3.5-23t10-13 14.5-4q10 0 16.5 3t13 9.5 15.5 16.5q6 7 15 5.5t19-8.5q10-9 12.5-19.5t-2.5-19.5q-11-19-27.5-33t-36.5-22-42-8q-23 0-40 5.5t-29.5 17-18.5 28-9 37.5q0 5-0.5 12t-0.5 15q-22-43-49-68t-56.5-36-59.5-11zm-99 252q0-52 12-91t37-60 63-21q31 0 59 17t52 51.5 41 85.5v192q-31 18-59.5 24.5t-58.5 6.5q-27 0-49.5-8t-40.5-24.5-30.5-41-19-57-6.5-74.5z"/><path transform="translate(22.694 17.85) scale(.014 -.014)" d="m494 22q16 10 32 19t30.5 17 27.5 14 22 11q17 7 27.5 0.5t15-19.5 0.5-27-19-21q-14-7-30.5-16.5t-34-19.5-35.5-20.5-36-20.5zm-173-416q-43 0-75.5 15t-50 42.5-17.5 64.5q0 26 9.5 51.5t30 51 51.5 51.5 74 53q23 14 45.5 28.5t45.5 28.5v113q-14-31-33.5-54t-42-38-47.5-22.5-52-7.5q-52 0-89 19t-56.5 58.5-19.5 100.5v328q0 13 10.5 19.5t31.5 6.5q22 0 33-6.5t11-19.5v-326q0-34 10-57t30-34.5 51-11.5q30 0 55.5 13t46 36.5 36 55.5 25.5 70v254q0 13 10.5 19.5t32.5 6.5q21 0 32-6.5t11-19.5v-618q0-63-14-112.5t-40-83-63-51.5-82-18zm5 78q26 0 46 12t34 36 21 60 7 83v32q-19-11-38-23t-39-24q-22-15-39-30t-28.5-30.5-17-31-5.5-31.5 6.5-28 19.5-18.5 33-6.5z"/><path transform="translate(31.654 17.85) scale(.014 -.014)" d="m229-15q-22 0-32 7t-15 19l-157 454q-7 20 4.5 35t39.5 15q15 0 24-6t13-20l124-380 132 380q5 14 14.5 20t25.5 6q15 0 25-6t14-20l135-380 123 380q5 14 14 20t24 6q29 0 40-14t3-36l-159-454q-4-12-14-19t-32-7-30.5 7.5-12.5 18.5l-130 367-127-367q-4-11-14.5-18.5t-31.5-7.5z"/><path transform="translate(42.91 17.85) scale(.014 -.014)" d="m136-15q-21 0-31.5 6.5t-10.5 19.5v478q0 13 10.5 19.5t31.5 6.5q22 0 33-6.5t11-19.5v-90q16 30 35 52.5t40 37.5 42.5 22.5 43.5 7.5q24 0 46.5-7.5t33.5-17.5q10-8 11.5-18t-8.5-28q-8-15-19-19.5t-25 0.5q-12 4-24 7t-28 3q-21 0-42.5-11t-41-33-36-54-28.5-72v-258q0-13-11-19.5t-33-6.5z"/><path transform="translate(49.266 17.85) scale(.014 -.014)" d="m192-17q-51 0-74.5 27t-23.5 78v401q0 13 10.5 19.5t31.5 6.5q22 0 33-6.5t11-19.5v-390q0-22 8-31t21-9q10 0 17 4t13.5 10.5 14.5 15.5q5 6 15.5 3.5t17.5-9.5q10-8 12-18t-3-18q-11-20-27.5-34t-36-22-40.5-8zm-56 686q-28 0-42 15.5t-14 46.5q0 32 14 48t42 16 41.5-16 13.5-48q2-31-12.5-46.5t-42.5-15.5z"/><path transform="translate(53.466 17.85) scale(.014 -.014)" d="m239-17q-40 0-67 15.5t-40.5 44.5-13.5 70v307h-77q-15 0-21.5 9t-6.5 31q0 23 6.5 31.5t21.5 8.5h77v204q0 13 10.5 19.5t32.5 6.5 33-6.5 11-19.5v-204h126q15 0 21.5-8.5t6.5-31.5q0-22-6.5-31t-21.5-9h-126v-298q0-34 9.5-48.5t32.5-14.5q22 0 39 12t35 33q10 11 20 9t20-10q13-9 14.5-19.5t-3.5-19.5q-16-29-37.5-47t-45.5-26-50-8z"/><path transform="translate(58.898 17.85) scale(.014 -.014)" d="m288-19q-75 0-125 33t-75 88.5-25 124.5q0 65 18.5 118.5t52 92.5 80.5 60 104 21q47 0 83-14.5t56.5-43.5 20.5-74q0-38-17-69t-47.5-55-72-41-92-26.5-106.5-13.5l-1 70q33 2 68 8t67 16.5 57 25.5 39.5 34.5 14.5 43.5q0 32-21.5 45.5t-56.5 13.5q-33 0-61.5-13.5t-50.5-39.5-34.5-62-12.5-81q0-56 17-96.5t48.5-63 75.5-22.5q31 0 53 9t40.5 26 39.5 39q14 15 26.5 14.5t26.5-11.5 17-23-6-25q-26-39-60-63t-70-35-71-11z"/><path transform="translate(70.462 17.85) scale(.014 -.014)" d="m401-17q-71 0-129.5 29.5t-101 84.5-66 132.5-23.5 172.5q0 71 13.5 135t38 118.5 60 98 80.5 73.5 98 46.5 112 16.5q58 0 105.5-12.5t89.5-39 81-67.5q12-11 11.5-23t-17.5-28q-15-15-26.5-12.5t-24.5 12.5q-38 33-74 51.5t-72 26-73 7.5q-47 0-87.5-13t-75-38-62-60.5-46-80.5-29-98-10.5-113q0-76 17-138t47.5-106 73-67 93.5-23q63 0 112.5 33.5t87 89 62 122.5 35.5 132q0 14 11 21t33 7q44 0 44-28v-429q0-14-11-21t-33-7q-44 0-44 28v204q-25-57-56.5-101t-69.5-74.5-82-46-92-15.5z"/><path transform="translate(82.712 17.85) scale(.014 -.014)" d="m169 0q-44 0-44 28v820q0 27 45 27h201q82 0 142-16t92.5-57 32.5-116q0-46-19.5-82t-50.5-63-66-45.5-67-29.5v-3q47-1 90-12t77-33 53.5-58.5 19.5-88.5q0-48-15-90t-43.5-75-69-57-91-36.5-110.5-12.5zm44 80h133q65 0 110.5 16t73.5 43.5 41.5 61 13.5 69.5q0 41-14.5 70t-43 47.5-70.5 27-98 8.5h-146zm0 423h133q43 0 79.5 13.5t64 38 43 58 15.5 73.5q0 47-23 70t-62.5 31-91.5 8h-158z"/><path transform="translate(97.062 17.85) scale(.014 -.014)" d="m294-19q-61 0-112 20.5t-88 60.5-57 98q-5 15 3.5 22.5t22.5 12.5q15 5 27.5 4.5t17.5-14.5q17-39 39-65.5t57-40 90-13.5q27 0 51.5 7t44.5 21 35 37.5 23 57 8 78.5v596q0 14 11 20.5t33 6.5 33-6.5 11-20.5v-596q0-57-12-102.5t-34-80-53-57.5-69-34.5-82-11.5z"/></svg>

<?xml version="1.0" encoding="utf-8" ?>
<svg baseProfile="tiny" height="100%" version="1.2" width="100%" xmlns="http://www.w3.org/2000/svg" xmlns:ev="http://www.w3.org/2001/xml-events" xmlns:xlink="http://www.w3.org/1999/xlink"><defs /><g><path d="M169 -14Q125 -14 125 14V848Q125 862 136.5 868.5Q148 875 170 875H360Q460 875 527.0 853.0Q594 831 628.5 783.0Q663 735 663 656Q663 579 634.0 525.5Q605 472 558.0 438.0Q511 404 455.0 384.5Q399 365 344 356Q307 351 273.0 348.5Q239 346 213 346V14Q213 0 202.0 -7.0Q191 -14 169 -14ZM213 425Q232 425 253.5 426.0Q275 427 298.0 429.5Q321 432 344 435Q401 445 453.5 469.0Q506 493 539.5 538.0Q573 583 573 655Q573 706 549.0 736.5Q525 767 477.5 781.0Q430 795 360 795H213Z" transform="translate(0.0, 72) scale(0.072, -0.072)" /><path d="M193 -17Q142 -17 118.5 10.0Q95 37 95 88V864Q95 877 105.5 883.5Q116 890 137 890Q159 890 170.0 883.5Q181 877 181 864V99Q181 77 189.0 68.0Q197 59 210 59Q220 59 227.0 62.5Q234 66 241.0 73.0Q248 80 255 88Q262 95 271.0 93.5Q280 92 290 83Q297 76 300.5 66.5Q304 57 299 49Q288 28 271.0 13.5Q254 -1 234.0 -9.0Q214 -17 193 -17Z" transform="translate(50.4, 72) scale(0.072, -0.072)" /><path d="M250 -17Q195 -17 152.5 11.0Q110 39 86.5 94.0Q63 149 63 232Q63 284 72.5 328.5Q82 373 101.0 408.5Q120 444 147.0 468.5Q174 493 209.0 506.0Q244 519 287 519Q319 519 352.0 509.5Q385 500 415 483V487Q415 501 426.0 508.0Q437 515 459 515Q481 515 491.5 508.5Q502 502 502 488V99Q502 85 505.5 76.0Q509 67 515.5 63.0Q522 59 530 59Q540 59 546.5 62.0Q553 65 559.5 71.5Q566 78 575 88Q581 95 590.0 93.5Q599 92 609 85Q619 76 621.5 65.5Q624 55 619 46Q608 27 591.5 13.0Q575 -1 555.0 -9.0Q535 -17 513 -17Q490 -17 473.0 -11.5Q456 -6 443.5 5.5Q431 17 425.0 33.5Q419 50 416 71Q416 76 415.5 83.0Q415 90 415 98Q393 55 366.0 30.0Q339 5 309.5 -6.0Q280 -17 250 -17ZM151 235Q151 183 163.0 144.0Q175 105 200.0 84.0Q225 63 263 63Q294 63 322.0 80.0Q350 97 374.0 131.5Q398 166 415 217V409Q384 427 355.5 433.5Q327 440 297 440Q270 440 247.5 432.0Q225 424 207.0 407.5Q189 391 176.5 366.5Q164 342 157.5 309.5Q151 277 151 235Z" transform="translate(71.928, 72) scale(0.072, -0.072)" /><path d="M494 22Q510 32 526.0 41.0Q542 50 556.5 58.0Q571 66 584.0 72.0Q597 78 606 83Q623 90 633.5 83.5Q644 77 648.5 64.0Q653 51 649.0 37.0Q645 23 630 16Q616 9 599.5 -0.5Q583 -10 565.5 -20.0Q548 -30 530.0 -40.5Q512 -51 494 -61ZM321 -394Q278 -394 245.5 -379.0Q213 -364 195.5 -336.5Q178 -309 178 -272Q178 -246 187.5 -220.5Q197 -195 217.5 -169.5Q238 -144 269.0 -118.0Q300 -92 343 -65Q366 -51 388.5 -36.5Q411 -22 434 -8V105Q420 74 400.5 51.0Q381 28 358.5 13.0Q336 -2 311.0 -9.5Q286 -17 259 -17Q207 -17 170.0 2.0Q133 21 113.5 60.5Q94 100 94 161V489Q94 502 104.5 508.5Q115 515 136 515Q158 515 169.0 508.5Q180 502 180 489V163Q180 129 190.0 106.0Q200 83 220.0 71.5Q240 60 271 60Q301 60 326.5 73.0Q352 86 372.5 109.5Q393 133 408.5 165.0Q424 197 434 235V489Q434 502 444.5 508.5Q455 515 477 515Q498 515 509.0 508.5Q520 502 520 489V-129Q520 -192 506.0 -241.5Q492 -291 466.0 -324.5Q440 -358 403.0 -376.0Q366 -394 321 -394ZM326 -316Q352 -316 372.0 -304.0Q392 -292 406.0 -268.0Q420 -244 427.0 -208.0Q434 -172 434 -125V-93Q415 -104 396.0 -116.0Q377 -128 357 -140Q335 -155 318.0 -170.0Q301 -185 289.5 -200.5Q278 -216 272.5 -231.5Q267 -247 267 -263Q267 -279 273.5 -291.0Q280 -303 293.0 -309.5Q306 -316 326 -316Z" transform="translate(116.71199999999999, 72) scale(0.072, -0.072)" /><path d="M229 -15Q207 -15 197.0 -8.0Q187 -1 182 11L25 465Q18 485 29.5 500.0Q41 515 69 515Q84 515 93.0 509.0Q102 503 106 489L230 109L362 489Q367 503 376.5 509.0Q386 515 402 515Q417 515 427.0 509.0Q437 503 441 489L576 109L699 489Q704 503 713.0 509.0Q722 515 737 515Q766 515 777.0 501.0Q788 487 780 465L621 11Q617 -1 607.0 -8.0Q597 -15 575 -15Q553 -15 544.5 -7.5Q536 0 532 11L402 378L275 11Q271 0 260.5 -7.5Q250 -15 229 -15Z" transform="translate(162.79199999999997, 72) scale(0.072, -0.072)" /><path d="M136 -15Q115 -15 104.5 -8.5Q94 -2 94 11V489Q94 502 104.5 508.5Q115 515 136 515Q158 515 169.0 508.5Q180 502 180 489V399Q196 429 215.0 451.5Q234 474 255.0 489.0Q276 504 297.5 511.5Q319 519 341 519Q365 519 387.5 511.5Q410 504 421 494Q431 486 432.5 476.0Q434 466 424 448Q416 433 405.0 428.5Q394 424 380 429Q368 433 356.0 436.0Q344 439 328 439Q307 439 285.5 428.0Q264 417 244.5 395.0Q225 373 208.5 341.0Q192 309 180 269V11Q180 -2 169.0 -8.5Q158 -15 136 -15Z" transform="translate(220.67999999999998, 72) scale(0.072, -0.072)" /><path d="M192 -17Q141 -17 117.5 10.0Q94 37 94 88V489Q94 502 104.5 508.5Q115 515 136 515Q158 515 169.0 508.5Q180 502 180 489V99Q180 77 188.0 68.0Q196 59 209 59Q219 59 226.0 63.0Q233 67 239.5 73.5Q246 80 254 89Q259 95 269.5 92.5Q280 90 287 83Q297 75 299.0 65.0Q301 55 296 47Q285 27 268.5 13.0Q252 -1 232.5 -9.0Q213 -17 192 -17ZM136 669Q108 669 94.0 684.5Q80 700 80 731Q80 763 94.0 779.0Q108 795 136 795Q164 795 177.5 779.0Q191 763 191 731Q193 700 178.5 684.5Q164 669 136 669Z" transform="translate(253.36799999999997, 72) scale(0.072, -0.072)" /><path d="M239 -17Q199 -17 172.0 -1.5Q145 14 131.5 43.0Q118 72 118 113V420H41Q26 420 19.5 429.0Q13 438 13 460Q13 483 19.5 491.5Q26 500 41 500H118V704Q118 717 128.5 723.5Q139 730 161 730Q183 730 194.0 723.5Q205 717 205 704V500H331Q346 500 352.5 491.5Q359 483 359 460Q359 438 352.5 429.0Q346 420 331 420H205V122Q205 88 214.5 73.5Q224 59 247 59Q269 59 286.0 71.0Q303 83 321 104Q331 115 341.0 113.0Q351 111 361 103Q374 94 375.5 83.5Q377 73 372 64Q356 35 334.5 17.0Q313 -1 289.0 -9.0Q265 -17 239 -17Z" transform="translate(274.96799999999996, 72) scale(0.072, -0.072)" /><path d="M288 -19Q213 -19 163.0 14.0Q113 47 88.0 102.5Q63 158 63 227Q63 292 81.5 345.5Q100 399 133.5 438.0Q167 477 214.0 498.0Q261 519 318 519Q365 519 401.0 504.5Q437 490 457.5 461.0Q478 432 478 387Q478 349 461.0 318.0Q444 287 413.5 263.0Q383 239 341.5 222.0Q300 205 249.5 195.5Q199 186 143 182L142 252Q175 254 210.0 260.0Q245 266 277.0 276.5Q309 287 334.0 302.0Q359 317 373.5 336.5Q388 356 388 380Q388 412 366.5 425.5Q345 439 310 439Q277 439 248.5 425.5Q220 412 198.0 386.0Q176 360 163.5 324.0Q151 288 151 243Q151 187 168.0 146.5Q185 106 216.5 83.5Q248 61 292 61Q323 61 345.0 70.0Q367 79 385.5 96.0Q404 113 425 135Q439 150 451.5 149.5Q464 149 478 138Q492 127 495.0 115.0Q498 103 489 90Q463 51 429.0 27.0Q395 3 359.0 -8.0Q323 -19 288 -19Z" transform="translate(302.90399999999994, 72) scale(0.072, -0.072)" /><path d="M401 -17Q330 -17 271.5 12.5Q213 42 170.5 97.0Q128 152 104.5 229.5Q81 307 81 402Q81 473 94.5 537.0Q108 601 132.5 655.5Q157 710 192.5 753.5Q228 797 273.0 827.0Q318 857 371.0 873.5Q424 890 483 890Q541 890 588.5 877.5Q636 865 678.0 838.5Q720 812 759 771Q771 760 770.5 748.0Q770 736 753 720Q738 705 726.5 707.5Q715 710 702 720Q664 753 628.0 771.5Q592 790 556.0 797.5Q520 805 483 805Q436 805 395.5 792.0Q355 779 320.5 754.0Q286 729 258.5 693.5Q231 658 212.5 613.0Q194 568 183.5 515.0Q173 462 173 402Q173 326 190.0 264.0Q207 202 237.5 158.0Q268 114 310.5 91.0Q353 68 404 68Q467 68 516.5 101.5Q566 135 603.5 190.5Q641 246 665.5 313.0Q690 380 701 445Q701 459 712.0 466.0Q723 473 745 473Q789 473 789 445V16Q789 2 778.0 -5.0Q767 -12 745 -12Q701 -12 701 16V220Q676 163 644.5 119.0Q613 75 575.0 44.5Q537 14 493.0 -1.5Q449 -17 401 -17Z" transform="translate(362.376, 72) scale(0.072, -0.072)" /><path d="M169 0Q125 0 125 28V848Q125 875 170 875H371Q453 875 513.0 859.0Q573 843 605.5 802.0Q638 761 638 686Q638 640 618.5 604.0Q599 568 568.0 541.0Q537 514 502.0 495.5Q467 477 435 466V463Q482 462 525.0 451.0Q568 440 602.0 418.0Q636 396 655.5 359.5Q675 323 675 271Q675 223 660.0 181.0Q645 139 616.5 106.0Q588 73 547.5 49.0Q507 25 456.5 12.5Q406 0 346 0ZM213 80H346Q411 80 456.5 96.0Q502 112 530.0 139.5Q558 167 571.5 200.5Q585 234 585 270Q585 311 570.5 340.0Q556 369 527.5 387.5Q499 406 457.0 414.5Q415 423 359 423H213ZM213 503H346Q389 503 425.5 516.5Q462 530 489.5 554.5Q517 579 532.5 612.5Q548 646 548 686Q548 733 525.0 756.0Q502 779 462.5 787.0Q423 795 371 795H213Z" transform="translate(425.376, 72) scale(0.072, -0.072)" /><path d="M294 -19Q233 -19 182.0 1.5Q131 22 94.0 62.0Q57 102 37 160Q32 175 40.5 182.5Q49 190 63 195Q78 200 90.5 199.5Q103 199 108 185Q125 146 147.0 119.5Q169 93 204.0 79.5Q239 66 294 66Q321 66 345.5 73.0Q370 80 390.0 94.0Q410 108 425.0 131.5Q440 155 448.0 188.5Q456 222 456 267V863Q456 877 467.0 883.5Q478 890 500 890Q522 890 533.0 883.5Q544 877 544 863V267Q544 210 532.0 164.5Q520 119 498.0 84.5Q476 50 445.0 27.0Q414 4 376.0 -7.5Q338 -19 294 -19Z" transform="translate(499.176, 72) scale(0.072, -0.072)" /></g></svg>
